assets/images/simple-illustrations/simple-illustration__smartscan_mock_for_testing.svg

<svg width="204" height="204" viewBox="0 0 204 204" fill="none" xmlns="http://www.w3.org/2000/svg">
<path d="M41.2324 158.177C42.8893 158.177 44.2324 159.52 44.2324 161.177V180.489H63.2588L63.4131 180.493C64.9982 180.574 66.2588 181.884 66.2588 183.489C66.2588 185.094 64.9982 186.405 63.4131 186.485L63.2588 186.489H41.2324C39.5756 186.489 38.2324 185.146 38.2324 183.489C38.2324 183.443 38.2333 183.398 38.2354 183.353C38.2333 183.307 38.2324 183.262 38.2324 183.216V161.177C38.2324 159.52 39.5756 158.177 41.2324 158.177ZM159.108 158.177C160.765 158.177 162.108 159.52 162.108 161.177V183.216C162.108 183.275 162.106 183.334 162.103 183.393C162.104 183.425 162.107 183.457 162.107 183.489C162.107 185.094 160.847 186.405 159.262 186.485L159.107 186.489H137.068C135.412 186.489 134.068 185.146 134.068 183.489C134.068 181.832 135.412 180.489 137.068 180.489H156.108V161.177C156.108 159.52 157.452 158.177 159.108 158.177ZM63.4131 17.0342C64.9982 17.1146 66.2588 18.4252 66.2588 20.0303C66.2588 21.6353 64.9982 22.946 63.4131 23.0264L63.2588 23.0303H44.2324V42.3311C44.2321 43.9876 42.8891 45.3311 41.2324 45.3311C39.5758 45.3311 38.2328 43.9876 38.2324 42.3311V20.3047C38.2324 20.2587 38.2333 20.2125 38.2354 20.167C38.2333 20.1217 38.2324 20.0761 38.2324 20.0303C38.2324 18.3734 39.5756 17.0303 41.2324 17.0303H63.2588L63.4131 17.0342ZM159.262 17.0342C160.847 17.1147 162.107 18.4253 162.107 20.0303C162.107 20.0623 162.104 20.0942 162.103 20.126C162.106 20.185 162.108 20.2448 162.108 20.3047V42.3311C162.108 43.9876 160.765 45.3311 159.108 45.3311C157.452 45.3311 156.109 43.9876 156.108 42.3311V23.0303H137.068C135.412 23.0303 134.068 21.6871 134.068 20.0303C134.068 18.3734 135.412 17.0303 137.068 17.0303H159.107L159.262 17.0342Z" fill="#F68DFE"/>
<path d="M44.2324 180.489H43.7324C43.7324 180.765 43.9563 180.989 44.2324 180.989V180.489ZM63.2588 180.489L63.2714 179.989H63.2588V180.489ZM63.4131 180.493L63.4384 179.994L63.4257 179.993L63.4131 180.493ZM63.4131 186.485L63.4257 186.985L63.4384 186.985L63.4131 186.485ZM63.2588 186.489V186.989L63.2714 186.989L63.2588 186.489ZM38.2354 183.353L38.7348 183.375C38.7355 183.36 38.7355 183.345 38.7348 183.33L38.2354 183.353ZM38.2324 183.216H37.7324V183.216L38.2324 183.216ZM162.108 183.216L162.608 183.216V183.216H162.108ZM162.103 183.393L161.603 183.364C161.603 183.378 161.602 183.393 161.603 183.408L162.103 183.393ZM159.262 186.485L159.274 186.985L159.287 186.985L159.262 186.485ZM159.107 186.489V186.989L159.12 186.989L159.107 186.489ZM156.108 180.489V180.989C156.385 180.989 156.608 180.765 156.608 180.489H156.108ZM63.4131 17.0342L63.4384 16.5347L63.4257 16.5343L63.4131 17.0342ZM63.4131 23.0264L63.4257 23.5264L63.4384 23.5257L63.4131 23.0264ZM63.2588 23.0303V23.5304L63.2714 23.5301L63.2588 23.0303ZM44.2324 23.0303V22.5303C43.9563 22.5303 43.7324 22.7541 43.7324 23.0303H44.2324ZM44.2324 42.3311L44.7324 42.3312V42.3311H44.2324ZM38.2324 42.3311H37.7324V42.3312L38.2324 42.3311ZM38.2354 20.167L38.7348 20.1895C38.7355 20.1745 38.7355 20.1595 38.7348 20.1446L38.2354 20.167ZM63.2588 17.0303L63.2714 16.5303H63.2588V17.0303ZM159.262 17.0342L159.287 16.5347L159.274 16.5343L159.262 17.0342ZM162.103 20.126L161.603 20.1103C161.602 20.1253 161.603 20.1403 161.603 20.1552L162.103 20.126ZM162.108 42.3311L162.608 42.3312V42.3311H162.108ZM156.108 42.3311H155.608V42.3312L156.108 42.3311ZM156.108 23.0303H156.608C156.608 22.7541 156.385 22.5303 156.108 22.5303V23.0303ZM159.107 17.0303L159.12 16.5303H159.107V17.0303ZM41.2324 158.177V158.677C42.6131 158.677 43.7324 159.796 43.7324 161.177H44.2324H44.7324C44.7324 159.244 43.1654 157.677 41.2324 157.677V158.177ZM44.2324 161.177H43.7324V180.489H44.2324H44.7324V161.177H44.2324ZM44.2324 180.489V180.989H63.2588V180.489V179.989H44.2324V180.489ZM63.2588 180.489L63.2461 180.989L63.4004 180.993L63.4131 180.493L63.4257 179.993L63.2714 179.989L63.2588 180.489ZM63.4131 180.493L63.3878 180.993C64.7083 181.059 65.7588 182.152 65.7588 183.489H66.2588H66.7588C66.7588 181.617 65.2881 180.088 63.4384 179.994L63.4131 180.493ZM66.2588 183.489H65.7588C65.7588 184.827 64.7083 185.919 63.3878 185.986L63.4131 186.485L63.4384 186.985C65.2881 186.891 66.7588 185.362 66.7588 183.489H66.2588ZM63.4131 186.485L63.4004 185.986L63.2461 185.989L63.2588 186.489L63.2714 186.989L63.4257 186.985L63.4131 186.485ZM63.2588 186.489V185.989H41.2324V186.489V186.989H63.2588V186.489ZM41.2324 186.489V185.989C39.8517 185.989 38.7324 184.87 38.7324 183.489H38.2324H37.7324C37.7324 185.422 39.2994 186.989 41.2324 186.989V186.489ZM38.2324 183.489H38.7324C38.7324 183.45 38.7332 183.412 38.7348 183.375L38.2354 183.353L37.7359 183.33C37.7334 183.384 37.7324 183.437 37.7324 183.489H38.2324ZM38.2354 183.353L38.7348 183.33C38.7332 183.293 38.7324 183.255 38.7324 183.216L38.2324 183.216L37.7324 183.216C37.7324 183.268 37.7334 183.321 37.7359 183.375L38.2354 183.353ZM38.2324 183.216H38.7324V161.177H38.2324H37.7324V183.216H38.2324ZM38.2324 161.177H38.7324C38.7324 159.796 39.8517 158.677 41.2324 158.677V158.177V157.677C39.2994 157.677 37.7324 159.244 37.7324 161.177H38.2324ZM159.108 158.177V158.677C160.489 158.677 161.608 159.796 161.608 161.177H162.108H162.608C162.608 159.244 161.041 157.677 159.108 157.677V158.177ZM162.108 161.177H161.608V183.216H162.108H162.608V161.177H162.108ZM162.108 183.216L161.608 183.216C161.608 183.262 161.606 183.31 161.603 183.364L162.103 183.393L162.602 183.422C162.605 183.358 162.608 183.289 162.608 183.216L162.108 183.216ZM162.103 183.393L161.603 183.408C161.604 183.436 161.606 183.464 161.607 183.475C161.608 183.49 161.607 183.491 161.607 183.489H162.107H162.607C162.607 183.455 162.605 183.424 162.604 183.407C162.603 183.385 162.602 183.381 162.602 183.377L162.103 183.393ZM162.107 183.489H161.607C161.607 184.827 160.557 185.919 159.236 185.986L159.262 186.485L159.287 186.985C161.137 186.891 162.607 185.362 162.607 183.489H162.107ZM159.262 186.485L159.249 185.986L159.095 185.989L159.107 186.489L159.12 186.989L159.274 186.985L159.262 186.485ZM159.107 186.489V185.989H137.068V186.489V186.989H159.107V186.489ZM137.068 186.489V185.989C135.688 185.989 134.568 184.87 134.568 183.489H134.068H133.568C133.568 185.422 135.135 186.989 137.068 186.989V186.489ZM134.068 183.489H134.568C134.568 182.109 135.688 180.989 137.068 180.989V180.489V179.989C135.135 179.989 133.568 181.556 133.568 183.489H134.068ZM137.068 180.489V180.989H156.108V180.489V179.989H137.068V180.489ZM156.108 180.489H156.608V161.177H156.108H155.608V180.489H156.108ZM156.108 161.177H156.608C156.608 159.796 157.728 158.677 159.108 158.677V158.177V157.677C157.175 157.677 155.608 159.244 155.608 161.177H156.108ZM63.4131 17.0342L63.3878 17.5335C64.7083 17.6005 65.7588 18.6929 65.7588 20.0303H66.2588H66.7588C66.7588 18.1575 65.2881 16.6286 63.4384 16.5348L63.4131 17.0342ZM66.2588 20.0303H65.7588C65.7588 21.3676 64.7083 22.4601 63.3878 22.527L63.4131 23.0264L63.4384 23.5257C65.2881 23.4319 66.7588 21.903 66.7588 20.0303H66.2588ZM63.4131 23.0264L63.4004 22.5265L63.2461 22.5304L63.2588 23.0303L63.2714 23.5301L63.4257 23.5262L63.4131 23.0264ZM63.2588 23.0303V22.5303H44.2324V23.0303V23.5303H63.2588V23.0303ZM44.2324 23.0303H43.7324V42.3311H44.2324H44.7324V23.0303H44.2324ZM44.2324 42.3311L43.7324 42.331C43.7321 43.7116 42.6128 44.8311 41.2324 44.8311V45.3311V45.8311C43.1653 45.8311 44.732 44.2637 44.7324 42.3312L44.2324 42.3311ZM41.2324 45.3311V44.8311C39.852 44.8311 38.7327 43.7116 38.7324 42.331L38.2324 42.3311L37.7324 42.3312C37.7328 44.2637 39.2995 45.8311 41.2324 45.8311V45.3311ZM38.2324 42.3311H38.7324V20.3047H38.2324H37.7324V42.3311H38.2324ZM38.2324 20.3047H38.7324C38.7324 20.265 38.7332 20.2263 38.7348 20.1895L38.2354 20.167L37.7359 20.1445C37.7334 20.1986 37.7324 20.2524 37.7324 20.3047H38.2324ZM38.2354 20.167L38.7348 20.1446C38.7332 20.1077 38.7324 20.0696 38.7324 20.0303H38.2324H37.7324C37.7324 20.0826 37.7334 20.1357 37.7359 20.1894L38.2354 20.167ZM38.2324 20.0303H38.7324C38.7324 18.6496 39.8517 17.5303 41.2324 17.5303V17.0303V16.5303C39.2994 16.5303 37.7324 18.0973 37.7324 20.0303H38.2324ZM41.2324 17.0303V17.5303H63.2588V17.0303V16.5303H41.2324V17.0303ZM63.2588 17.0303L63.2461 17.5301L63.4004 17.534L63.4131 17.0342L63.4257 16.5343L63.2714 16.5304L63.2588 17.0303ZM159.262 17.0342L159.236 17.5335C160.557 17.6006 161.607 18.693 161.607 20.0303H162.107H162.607C162.607 18.1576 161.137 16.6287 159.287 16.5348L159.262 17.0342ZM162.107 20.0303H161.607C161.607 20.0278 161.608 20.0289 161.607 20.0439C161.606 20.0492 161.605 20.0608 161.605 20.0705C161.604 20.0813 161.603 20.095 161.603 20.1103L162.103 20.126L162.602 20.1417C162.602 20.1377 162.603 20.1343 162.604 20.1125C162.605 20.0956 162.607 20.0648 162.607 20.0303H162.107ZM162.103 20.126L161.603 20.1552C161.607 20.2084 161.608 20.2578 161.608 20.3047H162.108H162.608C162.608 20.2318 162.605 20.1616 162.602 20.0967L162.103 20.126ZM162.108 20.3047H161.608V42.3311H162.108H162.608V20.3047H162.108ZM162.108 42.3311L161.608 42.331C161.608 43.7116 160.489 44.8311 159.108 44.8311V45.3311V45.8311C161.041 45.8311 162.608 44.2637 162.608 42.3312L162.108 42.3311ZM159.108 45.3311V44.8311C157.728 44.8311 156.609 43.7116 156.608 42.331L156.108 42.3311L155.608 42.3312C155.609 44.2637 157.176 45.8311 159.108 45.8311V45.3311ZM156.108 42.3311H156.608V23.0303H156.108H155.608V42.3311H156.108ZM156.108 23.0303V22.5303H137.068V23.0303V23.5303H156.108V23.0303ZM137.068 23.0303V22.5303C135.688 22.5303 134.568 21.411 134.568 20.0303H134.068H133.568C133.568 21.9633 135.135 23.5303 137.068 23.5303V23.0303ZM134.068 20.0303H134.568C134.568 18.6496 135.688 17.5303 137.068 17.5303V17.0303V16.5303C135.135 16.5303 133.568 18.0973 133.568 20.0303H134.068ZM137.068 17.0303V17.5303H159.107V17.0303V16.5303H137.068V17.0303ZM159.107 17.0303L159.095 17.5301L159.249 17.534L159.262 17.0342L159.274 16.5343L159.12 16.5304L159.107 17.0303Z" fill="black"/>
<path d="M65.5312 125.311C67.2678 124.812 69.0779 125.768 69.6577 127.458L69.7096 127.623L69.9644 128.499C71.2482 132.848 72.6649 136.783 74.0488 139.987C75.5602 143.487 76.9248 145.86 77.9015 147.009C79.1094 148.43 78.9367 150.562 77.5156 151.77C76.139 152.94 74.0959 152.814 72.8714 151.513L72.7552 151.384L72.4452 151.005C70.8941 149.047 69.3219 146.078 67.8479 142.665C66.3407 139.175 64.8349 134.979 63.4857 130.408L63.2186 129.489L63.1749 129.321C62.7687 127.581 63.7946 125.81 65.5312 125.311ZM78.6682 64.4758C80.2666 63.6772 82.2279 64.2644 83.1162 65.8378C84.0329 67.4619 83.4591 69.5215 81.835 70.4384C76.562 73.4152 72.1647 77.3177 69.2248 81.4903C66.8559 84.8527 65.5508 89.9144 65.2567 96.179C64.9657 102.375 65.6798 109.371 66.9922 116.254C67.3415 118.086 66.1398 119.855 64.3077 120.204C62.533 120.542 60.8179 119.425 60.3948 117.689L60.3577 117.52L60.107 116.162C58.8872 109.362 58.2069 102.32 58.51 95.8624C58.8303 89.0422 60.2643 82.4818 63.7034 77.6005C67.2937 72.5046 72.4881 67.9599 78.5149 64.5575L78.6682 64.4758ZM89.214 60.0353C103.133 55.9719 119.48 57.9689 131.763 71.8119L132.345 72.4806L132.455 72.615C133.545 74.0301 133.345 76.0672 131.972 77.241C130.598 78.4149 128.555 78.2949 127.327 76.997L127.21 76.8684L126.726 76.311C116.499 64.7778 103.043 63.0337 91.107 66.518C89.3166 67.0407 87.4413 66.0131 86.9187 64.2227C86.3963 62.4326 87.424 60.558 89.214 60.0353Z" fill="#50EEF6" stroke="#002140" stroke-linecap="round"/>
<path d="M123.834 118.032C124.134 116.191 125.869 114.942 127.71 115.242C129.551 115.542 130.8 117.277 130.5 119.118C129.894 122.84 129.043 127.101 127.893 131.062C126.764 134.95 125.263 138.862 123.222 141.668C121.278 144.342 117.484 148.187 112.427 150.559C107.248 152.988 100.641 153.894 93.619 150.283C91.9604 149.43 91.3067 147.394 92.1597 145.735C93.0126 144.077 95.0489 143.424 96.7074 144.277C101.505 146.744 105.873 146.173 109.559 144.444C113.367 142.658 116.327 139.664 117.759 137.695C119.096 135.857 120.338 132.861 121.407 129.18C122.454 125.572 123.253 121.6 123.834 118.032ZM71.2669 97.1955C71.4178 95.3366 73.0472 93.952 74.9061 94.1029C76.765 94.2538 78.1496 95.8831 77.9987 97.7421C77.4006 105.109 79.1877 114.655 81.7261 123.115C82.9824 127.302 84.3931 131.124 85.7148 134.153C87.0864 137.297 88.2285 139.271 88.8701 140.025C90.079 141.445 89.9075 143.576 88.4875 144.785C87.0675 145.994 84.9361 145.824 83.7271 144.404C82.385 142.827 80.9151 140.041 79.5247 136.854C78.0846 133.553 76.5835 129.475 75.2573 125.056C72.6306 116.302 70.568 105.805 71.2669 97.1955ZM94.3907 71.9215C102.258 70.1626 110.86 71.749 119.332 77.1857C129.489 83.7039 132.34 94.8995 131.747 107.755C131.661 109.618 130.082 111.059 128.219 110.973C126.356 110.887 124.915 109.307 125.001 107.444L125.043 106.34C125.375 95.0516 122.612 87.3165 115.684 82.8704C108.509 78.266 101.732 77.2005 95.864 78.5122C89.9565 79.833 84.5808 83.6525 80.4391 89.5213C79.3636 91.0448 77.2567 91.4079 75.733 90.3326C74.2094 89.2572 73.8457 87.1503 74.9209 85.6266C79.8475 78.6456 86.5632 73.6714 94.3907 71.9215Z" fill="#50EEF6" stroke="#002140" stroke-linecap="round"/>
<path d="M93.866 87.0926C99.7021 84.8169 106.887 85.8702 111.892 89.1868C113.447 90.217 113.872 92.3126 112.842 93.8673C111.812 95.4218 109.716 95.8464 108.161 94.8162C104.84 92.6152 99.9493 91.9696 96.3196 93.3849C94.5859 94.061 93.2065 95.175 92.321 96.7677C91.4854 98.2707 90.9504 100.453 91.2615 103.569L91.3357 104.204L91.3539 104.378C91.497 106.158 90.2192 107.758 88.4278 107.994C86.5787 108.237 84.8827 106.935 84.6394 105.086C84.039 100.523 84.6757 96.6189 86.4178 93.4855C88.1657 90.3417 90.867 88.2621 93.866 87.0926Z" fill="#50EEF6" stroke="#002140" stroke-linecap="round"/>
<path d="M96.6288 124.89C95.7809 123.578 94.7109 121.434 93.6591 117.667C93.1575 115.871 91.2944 114.821 89.498 115.323C87.7018 115.825 86.6526 117.687 87.1541 119.483C88.3481 123.759 89.6652 126.558 90.9557 128.556C92.1475 130.4 93.5593 131.8 93.824 132.121C95.0105 133.56 97.1389 133.765 98.5779 132.578C99.9718 131.429 100.208 129.396 99.1426 127.961L99.0355 127.824L98.6884 127.416C97.9256 126.545 97.4569 126.172 96.6288 124.89Z" fill="#50EEF6" stroke="#002140" stroke-linecap="round"/>
<path d="M106.139 119.842C106.139 115.927 106.169 112.356 105.78 109.276C105.379 106.105 104.506 103.157 102.519 100.508C101.4 99.0161 99.2834 98.714 97.7914 99.8327C96.2993 100.952 95.9963 103.069 97.1153 104.561C98.1674 105.964 98.7678 107.66 99.0792 110.124C99.4022 112.679 99.3843 115.736 99.3843 119.842C99.3843 121.707 100.896 123.218 102.761 123.219C104.626 123.219 106.139 121.707 106.139 119.842Z" fill="#50EEF6" stroke="#002140" stroke-linecap="round"/>
<path d="M134.378 149.079C136.177 149.569 138.033 148.508 138.524 146.709C146.091 118.962 146.152 99.4374 140.509 85.2469C139.82 83.514 137.857 82.6676 136.124 83.3564C134.391 84.0455 133.544 86.0095 134.233 87.7426C139.085 99.943 139.418 117.763 132.008 144.932C131.518 146.732 132.578 148.588 134.378 149.079Z" fill="#50EEF6" stroke="#002140" stroke-linecap="round"/>
<path d="M117.448 122.008C118.887 115.004 119.028 106.622 117.891 101.019C117.52 99.1912 115.737 98.0098 113.91 98.3806C112.082 98.7514 110.901 100.534 111.271 102.362C112.195 106.914 112.074 111.866 110.782 118.153C110.136 121.296 109.289 126.368 108.25 128.07C107.178 129.824 106.416 129.973 106.139 129.973C104.274 129.973 102.762 131.485 102.762 133.35C102.762 135.215 104.274 136.727 106.139 136.727C109.873 136.727 112.428 134.186 114.013 131.592C115.63 128.945 116.728 125.511 117.448 122.008Z" fill="#50EEF6" stroke="#002140" stroke-linecap="round"/>
<rect x="38" y="103" width="124" height="6" rx="3" fill="#F68DFE" stroke="#002140" stroke-linecap="round" stroke-linejoin="round"/>
</svg>

<svg xmlns="http://www.w3.org/2000/svg" width="204" height="204" fill="none" viewBox="0 0 204 204"><path fill="#f68dfe" d="M41.232 158.177a3 3 0 0 1 3 3v19.312H63.26l.154.004a3 3 0 0 1 0 5.992l-.154.004H41.232a3 3 0 0 1-2.997-3.136l-.003-.137v-22.039a3 3 0 0 1 3-3m117.876 0a3 3 0 0 1 3 3v22.039q0 .088-.005.177l.004.096a3 3 0 0 1-2.845 2.996l-.155.004h-22.039a3 3 0 0 1 0-6h19.04v-19.312a3 3 0 0 1 3-3M63.413 17.034a3 3 0 0 1 0 5.992l-.154.004H44.232v19.301a3 3 0 0 1-6 0V20.305q0-.07.003-.138l-.003-.137a3 3 0 0 1 3-3H63.26zm95.849 0a3 3 0 0 1 2.845 2.996l-.004.096q.005.089.005.179V42.33a3 3 0 0 1-6 0v-19.3h-19.04a3 3 0 0 1 0-6h22.039z"/><path fill="#000" d="M44.232 180.489h-.5a.5.5 0 0 0 .5.5zm19.027 0 .012-.5h-.012zm.154.004.025-.499-.012-.001zm0 5.992.013.5h.012zm-.154.004v.5h.012zm-25.024-3.136.5.022v-.045zm-.003-.137h-.5zm123.876 0h.5zm-.005.177-.5-.029v.044zm-2.841 3.092.012.5h.013zm-.155.004v.5h.013zm-2.999-6v.5a.5.5 0 0 0 .5-.5zM63.413 17.034l.025-.5h-.012zm0 5.992.013.5h.012zm-.154.004v.5h.012zm-19.027 0v-.5a.5.5 0 0 0-.5.5zm0 19.301h.5zm-6 0h-.5zm.003-22.164.5.022v-.044zM63.26 17.03l.012-.5h-.012zm96.003.004.025-.5h-.013zm2.841 3.092-.5-.016v.045zm.005 22.205h.5zm-6 0h-.5zm0-19.3h.5a.5.5 0 0 0-.5-.5zm2.999-6 .013-.5h-.013zM41.232 158.176v.5a2.5 2.5 0 0 1 2.5 2.5h1a3.5 3.5 0 0 0-3.5-3.5zm3 3h-.5v19.312h1v-19.312zm0 19.312v.5H63.26v-1H44.232zm19.027 0-.013.5.154.004.013-.5.013-.5-.155-.004zm.154.004-.025.5a2.5 2.5 0 0 1 2.37 2.496h1a3.5 3.5 0 0 0-3.32-3.495zm2.846 2.996h-.5a2.5 2.5 0 0 1-2.371 2.497l.025.499.025.5a3.5 3.5 0 0 0 3.32-3.496zm-2.846 2.996-.013-.499-.154.003.013.5.012.5.155-.004zm-.154.004v-.5H41.232v1H63.26zm-22.027 0v-.5a2.5 2.5 0 0 1-2.5-2.5h-1a3.5 3.5 0 0 0 3.5 3.5zm-3-3h.5q0-.059.003-.114l-.5-.022-.5-.023-.003.159zm.003-.136.5-.023-.003-.114h-1q0 .078.004.159zm-.003-.137h.5v-22.039h-1v22.039zm0-22.039h.5a2.5 2.5 0 0 1 2.5-2.5v-1a3.5 3.5 0 0 0-3.5 3.5zm120.876-3v.5a2.5 2.5 0 0 1 2.5 2.5h1a3.5 3.5 0 0 0-3.5-3.5zm3 3h-.5v22.039h1v-22.039zm0 22.039h-.5q0 .068-.005.148l.5.029.499.029q.005-.096.006-.206zm-.005.177-.5.015.004.067v.014h1c0-.034-.002-.065-.003-.082l-.002-.03zm.004.096h-.5a2.5 2.5 0 0 1-2.371 2.497l.026.499.025.5a3.5 3.5 0 0 0 3.32-3.496zm-2.845 2.996-.013-.499-.154.003.012.5.013.5.154-.004zm-.155.004v-.5h-22.039v1h22.039zm-22.039 0v-.5a2.5 2.5 0 0 1-2.5-2.5h-1a3.5 3.5 0 0 0 3.5 3.5zm-3-3h.5a2.5 2.5 0 0 1 2.5-2.5v-1a3.5 3.5 0 0 0-3.5 3.5zm3-3v.5h19.04v-1h-19.04zm19.04 0h.5v-19.312h-1v19.312zm0-19.312h.5a2.5 2.5 0 0 1 2.5-2.5v-1a3.5 3.5 0 0 0-3.5 3.5zM63.413 17.034l-.025.5a2.5 2.5 0 0 1 2.37 2.496h1a3.5 3.5 0 0 0-3.32-3.495zm2.846 2.996h-.5a2.5 2.5 0 0 1-2.371 2.497l.025.5.025.499a3.5 3.5 0 0 0 3.32-3.496zm-2.846 2.996-.013-.5-.154.004.013.5.012.5.155-.004zm-.154.004v-.5H44.232v1H63.26zm-19.027 0h-.5v19.301h1v-19.3zm0 19.301h-.5a2.5 2.5 0 0 1-2.5 2.5v1a3.5 3.5 0 0 0 3.5-3.5zm-3 3v-.5a2.5 2.5 0 0 1-2.5-2.5h-1a3.5 3.5 0 0 0 3.5 3.5zm-3-3h.5V20.305h-1V42.33zm0-22.026h.5q0-.06.003-.116l-.5-.022-.5-.023-.003.16zm.003-.138.5-.022-.003-.115h-1q0 .08.004.16zm-.003-.137h.5a2.5 2.5 0 0 1 2.5-2.5v-1a3.5 3.5 0 0 0-3.5 3.5zm3-3v.5H63.26v-1H41.232zm22.027 0-.013.5.154.004.013-.5.013-.5-.155-.004zm96.003.004-.026.5a2.5 2.5 0 0 1 2.371 2.496h1a3.5 3.5 0 0 0-3.32-3.495zm2.845 2.996h-.5v.014l-.002.026-.002.04.5.016.499.016.002-.03c.001-.016.003-.047.003-.082zm-.004.096-.5.03q.005.078.005.149h1q0-.11-.006-.208zm.005.179h-.5V42.33h1V20.305zm0 22.026h-.5a2.5 2.5 0 0 1-2.5 2.5v1a3.5 3.5 0 0 0 3.5-3.5zm-3 3v-.5a2.5 2.5 0 0 1-2.5-2.5h-1a3.5 3.5 0 0 0 3.5 3.5zm-3-3h.5v-19.3h-1v19.3zm0-19.3v-.5h-19.04v1h19.04zm-19.04 0v-.5a2.5 2.5 0 0 1-2.5-2.5h-1a3.5 3.5 0 0 0 3.5 3.5zm-3-3h.5a2.5 2.5 0 0 1 2.5-2.5v-1a3.5 3.5 0 0 0-3.5 3.5zm3-3v.5h22.039v-1h-22.039zm22.039 0-.012.5.154.003.013-.5.012-.5-.154-.004z"/><path fill="#50eef6" stroke="#002140" stroke-linecap="round" d="M65.531 125.311a3.377 3.377 0 0 1 4.127 2.147l.052.165.254.876c1.284 4.349 2.7 8.284 4.085 11.488 1.511 3.5 2.876 5.873 3.852 7.022a3.378 3.378 0 0 1-5.03 4.504l-.116-.129-.31-.379c-1.55-1.958-3.123-4.927-4.597-8.34-1.507-3.49-3.013-7.686-4.362-12.257l-.267-.919-.044-.168a3.376 3.376 0 0 1 2.356-4.01Zm13.137-60.835a3.378 3.378 0 0 1 3.167 5.962c-5.273 2.977-9.67 6.88-12.61 11.052-2.37 3.363-3.674 8.424-3.968 14.689-.291 6.196.423 13.192 1.735 20.075a3.377 3.377 0 0 1-6.597 1.435l-.037-.169-.251-1.358c-1.22-6.8-1.9-13.842-1.597-20.3.32-6.82 1.754-13.38 5.193-18.261 3.59-5.096 8.785-9.641 14.812-13.043zm10.546-4.44c13.919-4.064 30.266-2.067 42.549 11.776l.582.669.11.134a3.378 3.378 0 0 1-5.128 4.382l-.117-.129-.484-.557c-10.227-11.533-23.683-13.277-35.619-9.793a3.377 3.377 0 0 1-1.893-6.483Z"/><path fill="#50eef6" stroke="#002140" stroke-linecap="round" d="M123.834 118.032a3.377 3.377 0 1 1 6.666 1.086c-.606 3.722-1.457 7.983-2.607 11.944-1.129 3.888-2.63 7.8-4.671 10.606-1.944 2.674-5.738 6.519-10.795 8.891-5.179 2.429-11.786 3.335-18.808-.276a3.378 3.378 0 1 1 3.088-6.006c4.798 2.467 9.166 1.896 12.852.167 3.808-1.786 6.768-4.78 8.2-6.749 1.337-1.838 2.579-4.834 3.648-8.515 1.047-3.608 1.846-7.58 2.427-11.148ZM71.267 97.196a3.377 3.377 0 0 1 6.732.546c-.598 7.367 1.189 16.913 3.727 25.373 1.256 4.187 2.667 8.009 3.989 11.038 1.371 3.144 2.513 5.118 3.155 5.872a3.377 3.377 0 0 1-5.143 4.379c-1.342-1.577-2.812-4.363-4.202-7.55-1.44-3.301-2.942-7.379-4.268-11.798-2.626-8.754-4.689-19.251-3.99-27.86ZM94.39 71.92c7.867-1.758 16.469-.172 24.941 5.265 10.157 6.518 13.008 17.713 12.415 30.569a3.376 3.376 0 1 1-6.746-.311l.042-1.104c.332-11.288-2.431-19.023-9.359-23.47-7.175-4.604-13.952-5.67-19.82-4.358-5.907 1.321-11.283 5.14-15.425 11.01a3.377 3.377 0 0 1-5.518-3.895c4.926-6.981 11.642-11.956 19.47-13.705Z"/><path fill="#50eef6" stroke="#002140" stroke-linecap="round" d="M93.866 87.093c5.836-2.276 13.021-1.223 18.026 2.094a3.377 3.377 0 1 1-3.731 5.63c-3.321-2.202-8.212-2.847-11.841-1.432-1.734.676-3.113 1.79-3.999 3.383-.836 1.503-1.37 3.685-1.06 6.801l.075.635.018.174a3.378 3.378 0 0 1-6.715.708c-.6-4.563.037-8.467 1.779-11.6 1.748-3.144 4.449-5.224 7.448-6.393Zm2.763 37.797c-.848-1.312-1.918-3.456-2.97-7.223a3.377 3.377 0 0 0-6.505 1.816c1.194 4.276 2.511 7.075 3.802 9.073 1.191 1.844 2.603 3.244 2.868 3.565a3.377 3.377 0 0 0 5.319-4.16l-.108-.137-.347-.408c-.762-.871-1.231-1.244-2.06-2.526Z"/><path fill="#50eef6" stroke="#002140" stroke-linecap="round" d="M106.139 119.842c0-3.915.03-7.486-.359-10.566-.401-3.171-1.274-6.119-3.261-8.768a3.377 3.377 0 0 0-5.404 4.053c1.052 1.403 1.653 3.099 1.964 5.563.323 2.555.305 5.612.305 9.718a3.377 3.377 0 0 0 6.755 0Zm28.239 29.237a3.38 3.38 0 0 0 4.146-2.37c7.567-27.747 7.628-47.272 1.985-61.462a3.377 3.377 0 1 0-6.276 2.496c4.852 12.2 5.185 30.02-2.225 57.189-.49 1.8.57 3.656 2.37 4.147Z"/><path fill="#50eef6" stroke="#002140" stroke-linecap="round" d="M117.448 122.008c1.439-7.004 1.58-15.386.443-20.989a3.378 3.378 0 0 0-6.62 1.343c.924 4.552.803 9.504-.489 15.791-.646 3.143-1.493 8.215-2.532 9.917-1.072 1.754-1.834 1.903-2.111 1.903a3.377 3.377 0 0 0 0 6.754c3.734 0 6.289-2.541 7.874-5.135 1.617-2.647 2.715-6.081 3.435-9.584Z"/><rect width="124" height="6" x="38" y="103" fill="#f68dfe" stroke="#002140" stroke-linecap="round" stroke-linejoin="round" rx="3"/></svg>
